X:1
T:The Wreck of the Royal Palm
M:4/4
L:1/4
K:C
 G3/2 C/2| E F D E/2 C/2-| C3 c| c d c A| G3 z| G A G E/2C/2| D/2 E C/2- C E/2C/2|\
 D F A/2 c3/2| B3 G| E E D3/2 B,/2| C3 c| c d c A| G3 A3/4 B/4| c d/2 c/2- c A/2F/2|\
 G G/2A/2 G E| G F D| E/2 C/2-| C2||
